Catalina-light/actions/22/network-connect.svg

<svg xmlns="http://www.w3.org/2000/svg" viewBox="0 0 22 22">
  <defs id="defs3051">
    <style type="text/css" id="current-color-scheme">
      .ColorScheme-Text {
        color:#4d4d4d
      }
      </style>
  </defs>
 <path 
     style="fill:currentColor;fill-opacity:1;stroke:none"      
	 class="ColorScheme-Text"
        d="M 9.3339844 3 C 9.056156 3 8.8194671 3.0965485 8.625 3.2910156 C 8.4305329 3.4853549 8.3339844 3.7221716 8.3339844 4 L 8.3339844 7.3339844 C 8.3339844 7.6118128 8.4305329 7.8465485 8.625 8.0410156 C 8.8193392 8.2354827 9.056156 8.3339844 9.3339844 8.3339844 L 10.333984 8.3339844 L 10.333984 10.333984 L 5 10.333984 C 4.6388103 10.333984 4.3263922 10.464623 4.0625 10.728516 C 3.7986078 10.99228 3.6660156 11.304954 3.6660156 11.666016 L 3.6660156 13.666016 L 2.6660156 13.666016 C 2.3883151 13.666016 2.1534515 13.764645 1.9589844 13.958984 C 1.7645173 14.153324 1.6660156 14.388187 1.6660156 14.666016 L 1.6660156 18 C 1.6660156 18.277828 1.7645173 18.514645 1.9589844 18.708984 C 2.1534515 18.903451 2.3883151 19 2.6660156 19 L 6 19 C 6.2777005 19 6.5145173 18.903324 6.7089844 18.708984 C 6.9034515 18.514645 7 18.277828 7 18 L 7 14.666016 C 7 14.388187 6.9034515 14.153451 6.7089844 13.958984 C 6.5145173 13.764517 6.2777005 13.666016 6 13.666016 L 5 13.666016 L 5 11.666016 L 10.333984 11.666016 L 10.333984 13.666016 L 9.3339844 13.666016 C 9.056156 13.666016 8.8194671 13.764645 8.625 13.958984 C 8.4305329 14.153324 8.3339844 14.388187 8.3339844 14.666016 L 8.3339844 18 C 8.3339844 18.277828 8.4305329 18.514645 8.625 18.708984 C 8.8193392 18.903451 9.056156 19 9.3339844 19 L 12.666016 19 C 12.943972 19 13.180533 18.903324 13.375 18.708984 C 13.569339 18.514517 13.666016 18.277828 13.666016 18 L 13.666016 14.666016 C 13.666016 14.388187 13.569467 14.153451 13.375 13.958984 C 13.180533 13.764517 12.943972 13.666016 12.666016 13.666016 L 11.666016 13.666016 L 11.666016 11.666016 L 17 11.666016 L 17 13.666016 L 16 13.666016 C 15.722299 13.666016 15.485483 13.764645 15.291016 13.958984 C 15.096676 14.153451 15 14.388187 15 14.666016 L 15 18 C 15 18.277828 15.096676 18.514645 15.291016 18.708984 C 15.485483 18.903451 15.722299 19 16 19 L 19.333984 19 C 19.611685 19 19.846549 18.903324 20.041016 18.708984 C 20.235483 18.514645 20.333984 18.277828 20.333984 18 L 20.333984 14.666016 C 20.333984 14.388187 20.23718 14.153324 20.042969 13.958984 C 19.848502 13.764517 19.611941 13.666016 19.333984 13.666016 L 18.333984 13.666016 L 18.333984 11.666016 C 18.333984 11.304954 18.201264 10.99228 17.9375 10.728516 C 17.673608 10.464496 17.361062 10.333984 17 10.333984 L 11.666016 10.333984 L 11.666016 8.3339844 L 12.666016 8.3339844 C 12.943972 8.3339844 13.180661 8.2354827 13.375 8.0410156 C 13.569467 7.8466764 13.666016 7.6118128 13.666016 7.3339844 L 13.666016 4 C 13.666016 3.7221716 13.569339 3.4853549 13.375 3.2910156 C 13.180533 3.0965485 12.943972 3 12.666016 3 L 9.3339844 3 z "
     />
</svg>

<svg viewBox="0 0 22 22" xmlns="http://www.w3.org/2000/svg">
<defs>
<style id="current-color-scheme" type="text/css">.ColorScheme-Text {
        color:#363636
      }</style>
</defs>
<path class="ColorScheme-Text" d="m9.334 3c-0.27783 0-0.51452 0.096548-0.70898 0.29102-0.19447 0.19434-0.29102 0.43116-0.29102 0.70898v3.334c0 0.27783 0.096548 0.51256 0.29102 0.70703 0.19434 0.19447 0.43116 0.29297 0.70898 0.29297h1v2h-5.334c-0.36119 0-0.67361 0.13064-0.9375 0.39453-0.26389 0.26376-0.39648 0.57644-0.39648 0.9375v2h-1c-0.2777 0-0.51256 0.098629-0.70703 0.29297-0.19447 0.19434-0.29297 0.4292-0.29297 0.70703v3.334c0 0.27783 0.098502 0.51464 0.29297 0.70898 0.19447 0.19447 0.42933 0.29102 0.70703 0.29102h3.334c0.2777 0 0.51452-0.096676 0.70898-0.29102 0.19447-0.19434 0.29102-0.43116 0.29102-0.70898v-3.334c0-0.27783-0.096548-0.51256-0.29102-0.70703s-0.43128-0.29297-0.70898-0.29297h-1v-2h5.334v2h-1c-0.27783 0-0.51452 0.098629-0.70898 0.29297-0.19447 0.19434-0.29102 0.4292-0.29102 0.70703v3.334c0 0.27783 0.096548 0.51464 0.29102 0.70898 0.19434 0.19447 0.43116 0.29102 0.70898 0.29102h3.332c0.27796 0 0.51452-0.096676 0.70898-0.29102 0.19434-0.19447 0.29102-0.43116 0.29102-0.70898v-3.334c0-0.27783-0.096549-0.51256-0.29102-0.70703s-0.43103-0.29297-0.70898-0.29297h-1v-2h5.334v2h-1c-0.2777 0-0.51452 0.098629-0.70898 0.29297-0.19434 0.19447-0.29102 0.4292-0.29102 0.70703v3.334c0 0.27783 0.096676 0.51464 0.29102 0.70898 0.19447 0.19447 0.43128 0.29102 0.70898 0.29102h3.334c0.2777 0 0.51256-0.096676 0.70703-0.29102 0.19447-0.19434 0.29297-0.43116 0.29297-0.70898v-3.334c0-0.27783-0.096804-0.51269-0.29102-0.70703-0.19447-0.19447-0.43103-0.29297-0.70898-0.29297h-1v-2c0-0.36106-0.13272-0.67374-0.39648-0.9375-0.26389-0.26402-0.57644-0.39453-0.9375-0.39453h-5.334v-2h1c0.27796 0 0.51464-0.098502 0.70898-0.29297 0.19447-0.19434 0.29102-0.4292 0.29102-0.70703v-3.334c0-0.27783-0.096677-0.51465-0.29102-0.70898-0.19447-0.19447-0.43103-0.29102-0.70898-0.29102h-3.332z" fill="#363636"/>
</svg>
